icons/midnadark/actions/24/labplot-xy-plot-two-axes.svg

<?xml version="1.0" encoding="UTF-8" standalone="no"?>
<!-- Created with Inkscape (http://www.inkscape.org/) -->

<svg
   xmlns:dc="http://purl.org/dc/elements/1.1/"
   xmlns:cc="http://creativecommons.org/ns#"
   xmlns:rdf="http://www.w3.org/1999/02/22-rdf-syntax-ns#"
   xmlns:svg="http://www.w3.org/2000/svg"
   xmlns="http://www.w3.org/2000/svg"
   xmlns:sodipodi="http://sodipodi.sourceforge.net/DTD/sodipodi-0.dtd"
   xmlns:inkscape="http://www.inkscape.org/namespaces/inkscape"
   width="22"
   height="22"
   id="svg3760"
   version="1.1"
   inkscape:version="0.91+devel r"
   sodipodi:docname="cartesian-plot-two-axes.svg">
  <defs
     id="defs3762" />
  <sodipodi:namedview
     id="base"
     pagecolor="#ffffff"
     bordercolor="#666666"
     borderopacity="1.0"
     inkscape:pageopacity="0.0"
     inkscape:pageshadow="2"
     inkscape:zoom="24.50705"
     inkscape:cx="8.2292539"
     inkscape:cy="11.043515"
     inkscape:document-units="px"
     inkscape:current-layer="layer1"
     showgrid="true"
     fit-margin-top="0"
     fit-margin-left="0"
     fit-margin-right="0"
     fit-margin-bottom="0"
     inkscape:window-width="1366"
     inkscape:window-height="672"
     inkscape:window-x="-4"
     inkscape:window-y="25"
     inkscape:window-maximized="1"
     inkscape:showpageshadow="false"
     showguides="true">
    <inkscape:grid
       type="xygrid"
       id="grid4106"
       originx="-0.99998557px"
       originy="-1.0000252px" />
    <sodipodi:guide
       position="2.00001,19.99997"
       orientation="0,18"
       id="guide4229" />
    <sodipodi:guide
       position="20.00001,19.99997"
       orientation="18,0"
       id="guide4231" />
    <sodipodi:guide
       position="20.00001,1.99997"
       orientation="0,-18"
       id="guide4233" />
    <sodipodi:guide
       position="2.00001,1.99997"
       orientation="-18,0"
       id="guide4235" />
    <sodipodi:guide
       position="3.00001,18.99997"
       orientation="0,16"
       id="guide4237" />
    <sodipodi:guide
       position="19.00001,18.99997"
       orientation="16,0"
       id="guide4239" />
    <sodipodi:guide
       position="19.00001,2.99997"
       orientation="0,-16"
       id="guide4241" />
    <sodipodi:guide
       position="3.00001,2.99997"
       orientation="-16,0"
       id="guide4243" />
    <sodipodi:guide
       position="9.3000344,11.707075"
       orientation="0.70710678,0.70710678"
       id="guide4185" />
    <sodipodi:guide
       position="19.199543,20.19237"
       orientation="-0.70710678,-0.70710678"
       id="guide4189" />
    <sodipodi:guide
       position="5.0000144,16.007095"
       orientation="-0.70710678,0.70710678"
       id="guide4193" />
    <sodipodi:guide
       position="18.69944,11.707191"
       orientation="0.70710678,-0.70710678"
       id="guide4197" />
  </sodipodi:namedview>
  <metadata
     id="metadata3765">
    <rdf:RDF>
      <cc:Work
         rdf:about="">
        <dc:format>image/svg+xml</dc:format>
        <dc:type
           rdf:resource="http://purl.org/dc/dcmitype/StillImage" />
        <dc:title />
      </cc:Work>
    </rdf:RDF>
  </metadata>
  <g
     inkscape:label="Capa 1"
     inkscape:groupmode="layer"
     id="layer1"
     transform="translate(-551.28571,-607.64788)">
    <path
       style="fill:#f2f2f2;fill-opacity:1;stroke:none"
       d="M 4 3 L 4 9 L 4 10 L 4 12 L 4 13 L 4 17 L 3 17 L 3 18 L 4 18 L 4 19 L 5 19 L 5 18 L 17.71875 18 L 19 18 L 19 17.84375 L 19 17 L 18.15625 17 L 17.96875 16.8125 L 17.125 16 L 15.84375 14.6875 L 15.125 14 L 13 16.09375 L 11.6875 14.8125 L 10.875 14 L 8.875 12 L 7 12 L 6 12 L 5 12 L 5 10 L 6 10 L 7 10 L 8.875 10 L 10.875 8 L 11.6875 7.15625 L 13 5.875 L 15.125 8 L 17.125 6 L 17.96875 5.15625 L 19 4.125 L 19 3.90625 L 18.78125 3.90625 L 18.28125 3.4375 L 17.25 4.46875 L 16.4375 5.28125 L 15.125 6.59375 L 13 4.46875 L 11.46875 6 L 11 6.46875 L 10.15625 7.28125 L 8.46875 9 L 7 9 L 6 9 L 5 9 L 5 3 L 4 3 z M 5 13 L 6 13 L 7 13 L 8.46875 13 L 10.15625 14.6875 L 11 15.53125 L 11.46875 16 L 12.46875 17 L 5 17 L 5 13 z M 15.125 15.40625 L 16.4375 16.6875 L 16.732422 17 L 13.53125 17 L 15.125 15.40625 z "
       transform="translate(551.28571,607.64788)"
       id="rect3003" />
  </g>
</svg>

<svg xmlns="http://www.w3.org/2000/svg" viewBox="0 0 22 22"><path d="m4 3v6 1 2 1 4h-1v1h1v1h1v-1h12.719 1.281v-.156-.844h-.844l-.188-.188-.844-.813-1.281-1.313-.719-.688-2.125 2.094-1.313-1.281-.813-.813-2-2h-1.875-1-1v-2h1 1 1.875l2-2 .813-.844 1.313-1.281 2.125 2.125 2-2 .844-.844 1.031-1.031v-.219h-.219l-.5-.469-1.031 1.031-.813.813-1.313 1.313-2.125-2.125-1.531 1.531-.469.469-.844.813-1.688 1.719h-1.469-1-1v-6h-1m1 10h1 1 1.469l1.688 1.688.844.844.469.469 1 1h-7.469v-4m10.125 2.406l1.313 1.281.295.313h-3.201l1.594-1.594" fill="#f2f2f2"/></svg>
